img/instagram.svg

<svg width="18" height="19" viewBox="0 0 18 19" fill="none" xmlns="http://www.w3.org/2000/svg">
<path d="M12.375 18.7292H5.625C2.51888 18.7292 0 16.2104 0 13.1042V6.35425C0 3.24812 2.51888 0.729248 5.625 0.729248H12.375C15.4811 0.729248 18 3.24812 18 6.35425V13.1042C18 16.2104 15.4811 18.7292 12.375 18.7292ZM16.3125 6.35425C16.3125 4.183 14.5462 2.41675 12.375 2.41675H5.625C3.45375 2.41675 1.6875 4.183 1.6875 6.35425V13.1042C1.6875 15.2755 3.45375 17.0417 5.625 17.0417H12.375C14.5462 17.0417 16.3125 15.2755 16.3125 13.1042V6.35425Z" fill="white"/>
<path d="M9 14.2292C6.51487 14.2292 4.5 12.2144 4.5 9.72925C4.5 7.24412 6.51487 5.22925 9 5.22925C11.4851 5.22925 13.5 7.24412 13.5 9.72925C13.5 12.2144 11.4851 14.2292 9 14.2292ZM9 6.91675C7.44975 6.91675 6.1875 8.179 6.1875 9.72925C6.1875 11.2806 7.44975 12.5417 9 12.5417C10.5503 12.5417 11.8125 11.2806 11.8125 9.72925C11.8125 8.179 10.5503 6.91675 9 6.91675Z" fill="white"/>
<path d="M13.8375 13.967C14.1686 13.967 14.4371 14.2355 14.4371 14.5666C14.4371 14.8978 14.1686 15.1663 13.8375 15.1663C13.5063 15.1663 13.2379 14.8978 13.2379 14.5666C13.2379 14.2355 13.5063 13.967 13.8375 13.967Z" fill="white"/>
</svg>

<svg width="18" height="19" fill="none" xmlns="http://www.w3.org/2000/svg"><path d="M12.375 18.73h-6.75A5.626 5.626 0 010 13.103v-6.75A5.626 5.626 0 015.625.73h6.75A5.626 5.626 0 0118 6.354v6.75a5.626 5.626 0 01-5.625 5.625zm3.938-12.376a3.942 3.942 0 00-3.938-3.937h-6.75a3.942 3.942 0 00-3.938 3.937v6.75a3.942 3.942 0 003.938 3.938h6.75a3.942 3.942 0 003.938-3.938v-6.75z" fill="#fff"/><path d="M9 14.23a4.5 4.5 0 110-9.001 4.5 4.5 0 010 9zm0-7.313a2.816 2.816 0 00-2.813 2.812A2.816 2.816 0 009 12.542a2.816 2.816 0 002.813-2.813A2.816 2.816 0 009 6.917zM13.838 13.967a.6.6 0 110 1.2.6.6 0 010-1.2z" fill="#fff"/></svg>
